X:0888
T:Miss Campbell's Strathsy.
M:C
L:1/8
Q:1/4=120
I: :: ||
N:Aird only prints 7 bars for the second part
Z:Jack Campin * www.campin.me.uk * 2009
K:G
D|G<GG>B dG```````Bd | ee`dB  AG```````ED|G<GGB  dG````B<d|ec`B>A BGG:|
e|e>dBd  ed```````Bd |Te>dgd  e/d/c/B/ Ad|e>dBd  e/e/e e>f|g>ef>d e>dBd|
  e>dgB  c/B/A/G/ A>B| D<DD>B A>G``````Ae|dG`B>A BGG     |]
<end>
<start>
